icons/primevue-light.svg

<svg width="256" height="256" viewBox="0 0 256 256" fill="none" xmlns="http://www.w3.org/2000/svg">
<path d="M196 0H60C26.8629 0 0 26.8629 0 60V196C0 229.137 26.8629 256 60 256H196C229.137 256 256 229.137 256 196V60C256 26.8629 229.137 0 196 0Z" fill="#F4F2ED"/>
<path d="M170.089 118.152L156.462 115.122L167.072 130.323V177.389L203.378 146.988V95.3265L186.734 101.386L170.089 118.102V118.152ZM167.072 206.225L186.734 186.479V166.733L167.072 183.449V206.225ZM141.376 113.557H140.722H141.426H141.376ZM191.36 53.2095L215.447 51.2905L206.345 89.2665L161.189 106.133L191.259 53.26L191.36 53.2095ZM68.7634 101.437L52.1189 95.377V147.038L88.4251 177.439V130.373L99.0354 115.173L85.408 118.203L68.7634 101.487V101.437ZM88.4251 183.449L68.7634 166.733V186.479L88.4251 206.225V183.449ZM64.1371 53.26L94.208 106.133L49.1017 89.2665L40 51.2905L64.0869 53.2095L64.1371 53.26ZM162.546 133.302V201.679L153.445 215.314L142.885 225.97H112.613L102.053 215.314L92.9509 201.679V133.302L102.455 119.061L127.749 162.34L153.042 119.061L162.546 133.302ZM154.903 27L153.495 30.4845L127.749 93.054L102.002 30.4845L100.594 27H154.903Z" fill="#41B883"/>
<path d="M194.327 48.2605L162.546 51.2905L153.495 30.4845L154.953 27H173.157L194.327 48.2605ZM159.429 55.6335L153.947 42.554L130.766 98.912V113.557H139.063H140.722H141.376H141.577L161.189 106.285L191.41 53.2095L159.429 55.6335ZM61.1704 48.2605L92.9509 51.2905L102.002 30.4845L100.594 27H82.391L61.2207 48.2605H61.1704ZM150.126 114.87L143.589 118.91H111.909L105.371 114.87L102.354 118.91L102.455 119.062L127.749 162.34L153.042 119.062L153.143 118.91L150.126 114.87ZM64.087 53.2095L94.3086 106.285L113.92 113.557H114.121H116.434H124.731V98.912L101.55 42.6045L96.0686 55.684L64.087 53.26V53.2095Z" fill="black"/>
</svg>

<svg xmlns="http://www.w3.org/2000/svg" width="256" height="256" fill="none"><path fill="#F4F2ED" d="M196 0H60C26.863 0 0 26.863 0 60v136c0 33.137 26.863 60 60 60h136c33.137 0 60-26.863 60-60V60c0-33.137-26.863-60-60-60"/><path fill="#41B883" d="m170.089 118.152-13.627-3.03 10.61 15.201v47.066l36.306-30.401V95.326l-16.644 6.06-16.645 16.716zm-3.017 88.073 19.662-19.746v-19.746l-19.662 16.716zm-25.696-92.668h-.654.704zm49.984-60.348 24.087-1.919-9.102 37.976-45.156 16.867 30.07-52.873zM68.763 101.438l-16.644-6.06v51.661l36.306 30.401v-47.066l10.61-15.2-13.627 3.03-16.645-16.716zm19.662 82.012-19.662-16.716v19.746l19.662 19.746zM64.137 53.26l30.071 52.873-45.106-16.867L40 51.29l24.087 1.92zm98.409 80.042v68.377l-9.101 13.635-10.56 10.656h-30.272l-10.56-10.656-9.102-13.635v-68.377l9.504-14.241 25.294 43.279 25.293-43.279zM154.903 27l-1.408 3.485-25.746 62.569-25.747-62.57L100.594 27z"/><path fill="#000" d="m194.327 48.26-31.781 3.03-9.051-20.805L154.953 27h18.204zm-34.898 7.374-5.482-13.08-23.181 56.358v14.645h10.811l19.612-7.272L191.41 53.21zM61.17 48.26l31.78 3.03 9.052-20.806L100.594 27H82.391l-21.17 21.26zm88.956 66.609-6.537 4.04h-31.68l-6.538-4.04-3.017 4.04.101.152 25.294 43.278 25.293-43.278.101-.152zM64.087 53.21l30.222 53.075 19.611 7.272h10.811V98.912L101.55 42.604l-5.481 13.08-31.982-2.424z"/></svg>
